;FLAVOR:Marlin
;TIME:3861
;Filament used: 2.17118m
;Layer height: 0.28
;MINX:89
;MINY:91.558
;MINZ:0.28
;MAXX:131
;MAXY:132.424
;MAXZ:77
;Generated with Cura_SteamEngine 5.0.0
M140 S60
M105
M190 S60
M104 S200
M105
M109 S200
M82 ;absolute extrusion mode
; Ender 3 Custom Start G-code
G92 E0 ; Reset Extruder
G28 ; Home all axes
G1 Z2.0 F3000 ; Move Z Axis up little to prevent scratching of Heat Bed
G1 X0.1 Y20 Z0.3 F5000.0 ; Move to start position
G1 X0.1 Y200.0 Z0.3 F1500.0 E15 ; Draw the first line
G1 X0.4 Y200.0 Z0.3 F5000.0 ; Move to side a little
G1 X0.4 Y20 Z0.3 F1500.0 E30 ; Draw the second line
G92 E0 ; Reset Extruder
G1 Z2.0 F3000 ; Move Z Axis up little to prevent scratching of Heat Bed
G1 X5 Y20 Z0.3 F5000.0 ; Move over to prevent blob squish
G92 E0
G92 E0
G1 F1500 E-6.5
;LAYER_COUNT:275
;LAYER:0
M107
G0 F6000 X93.619 Y95.405 Z0.28
G0 X89.001 Y106.521
;TYPE:SKIRT
G1 F1500 E0
G1 F1200 X89.019 Y105.71 E0.03777
G1 X89.054 Y104.983 E0.07166
G1 X89.139 Y104.049 E0.11533
G1 X89.258 Y103.34 E0.14881
G1 X89.345 Y102.908 E0.16933
G1 X89.569 Y101.998 E0.21297
G1 X89.731 Y101.488 E0.23789
G1 X89.883 Y101.048 E0.25956
G1 X90.227 Y100.176 E0.30321
G1 X90.456 Y99.692 E0.32814
G1 X90.665 Y99.277 E0.34978
G1 X91.122 Y98.458 E0.39345
G1 X91.438 Y97.974 E0.42037
G1 X91.697 Y97.599 E0.44159
G1 X92.262 Y96.85 E0.48527
G1 X92.628 Y96.429 E0.51125
G1 X92.957 Y96.069 E0.53396
G1 X93.619 Y95.405 E0.57762
G1 X94.015 Y95.057 E0.60217
G1 X94.341 Y94.784 E0.62197
G1 X95.085 Y94.213 E0.66564
G1 X95.494 Y93.939 E0.68856
G1 X95.885 Y93.69 E0.71015
G1 X96.697 Y93.22 E0.75383
G1 X97.531 Y92.819 E0.79692
G1 X98.833 Y92.31 E0.86202
G1 X99.265 Y92.172 E0.88314
G1 X100.169 Y91.925 E0.92677
G1 X100.671 Y91.823 E0.95062
G1 X101.106 Y91.745 E0.9712
G1 X102.035 Y91.619 E1.01486
G1 X102.523 Y91.585 E1.03764
G1 X102.984 Y91.563 E1.05913
G1 X103.922 Y91.558 E1.1028
G1 X104.529 Y91.597 E1.13113
G1 X107.721 Y91.895 E1.28041
G1 X110.191 Y92.054 E1.39566
G1 X112.725 Y92.146 E1.51373
G1 X115.248 Y92.167 E1.63121
G1 X117.812 Y92.115 E1.75063
G1 X118.64 Y92.08 E1.78922
G1 X119.577 Y92.08 E1.83285
G1 X120.512 Y92.16 E1.87655
G1 X121.592 Y92.355 E1.92765
G1 X121.829 Y92.41 E1.93898
G1 X122.732 Y92.661 E1.98262
G1 X123.611 Y92.987 E2.02627
G1 X124.373 Y93.343 E2.06544
G1 X124.583 Y93.451 E2.07643
G1 X125.398 Y93.915 E2.1201
G1 X126.17 Y94.447 E2.16376
G1 X126.748 Y94.913 E2.19833
G1 X126.933 Y95.073 E2.20972
G1 X127.615 Y95.716 E2.25337
G1 X128.241 Y96.415 E2.29706
G1 X128.783 Y97.134 E2.33898
G1 X128.92 Y97.332 E2.3502
G1 X129.42 Y98.125 E2.39385
G1 X129.851 Y98.958 E2.43752
G1 X130.132 Y99.62 E2.47101
G1 X130.216 Y99.837 E2.48184
G1 X130.517 Y100.725 E2.5255
G1 X130.741 Y101.636 E2.56919
G1 X130.872 Y102.428 E2.60657
G1 X130.978 Y103.752 E2.66842
G1 X131 Y105.002 E2.72663
G1 X130.999 Y116.867 E3.27911
G1 X130.979 Y117.825 E3.32373
G1 X130.952 Y118.378 E3.34951
G1 X130.815 Y119.65 E3.40908
G1 X130.736 Y120.124 E3.43146
G1 X130.437 Y121.426 E3.49367
G1 X130.297 Y121.901 E3.51672
G1 X129.848 Y123.145 E3.57831
G1 X129.673 Y123.551 E3.59889
G1 X129.072 Y124.741 E3.66097
G1 X128.796 Y125.214 E3.68647
G1 X128.032 Y126.353 E3.75033
G1 X127.775 Y126.689 E3.77003
G1 X126.933 Y127.665 E3.83005
G1 X126.576 Y128.033 E3.85393
G1 X125.553 Y128.964 E3.91834
G1 X125.158 Y129.28 E3.94189
G1 X124.135 Y130.006 E4.0003
G1 X123.783 Y130.227 E4.01966
G1 X122.602 Y130.872 E4.08231
G1 X122.124 Y131.096 E4.10689
G1 X120.845 Y131.6 E4.17091
G1 X120.388 Y131.748 E4.19328
G1 X119.196 Y132.061 E4.25066
G1 X118.779 Y132.146 E4.27048
G1 X117.496 Y132.33 E4.33083
G1 X116.992 Y132.372 E4.35438
G1 X116.255 Y132.409 E4.38874
G1 X115.207 Y132.424 E4.43755
G1 X104.546 Y132.423 E4.93397
G1 X103.599 Y132.403 E4.97807
G1 X103.046 Y132.376 E5.00385
G1 X101.755 Y132.236 E5.06432
G1 X101.28 Y132.156 E5.08675
G1 X99.994 Y131.859 E5.14821
G1 X99.506 Y131.715 E5.1719
G1 X98.253 Y131.261 E5.23396
G1 X97.883 Y131.101 E5.25273
G1 X96.727 Y130.518 E5.31301
G1 X96.236 Y130.233 E5.33945
G1 X95.086 Y129.465 E5.40384
G1 X94.719 Y129.185 E5.42534
G1 X93.729 Y128.333 E5.48616
G1 X93.422 Y128.035 E5.50608
G1 X92.519 Y127.044 E5.56851
G1 X92.162 Y126.601 E5.595
G1 X91.402 Y125.534 E5.656
G1 X91.183 Y125.184 E5.67522
G1 X90.552 Y124.026 E5.73663
G1 X90.335 Y123.564 E5.7604
G1 X89.833 Y122.298 E5.82381
G1 X89.682 Y121.835 E5.84649
G1 X89.349 Y120.558 E5.90794
G1 X89.26 Y120.108 E5.9293
G1 X89.085 Y118.832 E5.98927
G1 X89.048 Y118.359 E6.01136
G1 X89.015 Y117.678 E6.04311
G1 X89 Y116.631 E6.09187
G1 X89.001 Y106.521 E6.56263
G0 F6000 X89.401 Y106.526
G1 F1200 X89.418 Y105.729 E6.59975
G1 X89.453 Y105.002 E6.63365
G1 X89.537 Y104.085 E6.67652
G1 X89.65 Y103.419 E6.70798
G1 X89.737 Y102.987 E6.7285
G1 X89.957 Y102.094 E6.77132
G1 X90.109 Y101.619 E6.79455
G1 X90.261 Y101.179 E6.81622
G1 X90.599 Y100.323 E6.85908
G1 X90.813 Y99.872 E6.88232
G1 X91.022 Y99.457 E6.90396
G1 X91.471 Y98.654 E6.9468
G1 X91.767 Y98.201 E6.97199
G1 X92.026 Y97.826 E6.99322
G1 X92.582 Y97.092 E7.03609
G1 X92.923 Y96.699 E7.06032
G1 X93.252 Y96.339 E7.08303
G1 X93.902 Y95.687 E7.1259
G1 X94.271 Y95.363 E7.14876
G1 X94.597 Y95.09 E7.16856
G1 X95.709 Y94.276 E7.23273
G1 X96.1 Y94.027 E7.25432
G1 X96.897 Y93.567 E7.29717
G1 X97.7 Y93.181 E7.33865
G1 X98.954 Y92.691 E7.40135
G1 X99.386 Y92.553 E7.42246
G1 X100.275 Y92.311 E7.46536
G1 X100.741 Y92.216 E7.48751
G1 X101.176 Y92.138 E7.50809
G1 X102.542 Y91.984 E7.5721
G1 X103.003 Y91.962 E7.59359
G1 X103.923 Y91.958 E7.63643
G1 X104.492 Y91.996 E7.66298
G1 X107.66 Y92.291 E7.81114
G1 X110.187 Y92.454 E7.92905
G1 X112.707 Y92.546 E8.04647
G1 X115.253 Y92.567 E8.16502
G1 X117.79 Y92.516 E8.28318
G1 X118.656 Y92.479 E8.32354
G1 X119.577 Y92.481 E8.36643
G1 X120.494 Y92.561 E8.40929
G1 X121.501 Y92.744 E8.45695
G1 X121.738 Y92.799 E8.46828
G1 X122.625 Y93.046 E8.51115
G1 X123.487 Y93.369 E8.55401
G1 X124.19 Y93.699 E8.59018
G1 X124.4 Y93.807 E8.60117
G1 X125.2 Y94.263 E8.64405
G1 X125.957 Y94.787 E8.68692
G1 X126.486 Y95.216 E8.71863
G1 X126.671 Y95.376 E8.73002
G1 X127.341 Y96.007 E8.77288
G1 X127.953 Y96.695 E8.81576
G1 X128.454 Y97.362 E8.8546
G1 X128.591 Y97.56 E8.86581
G1 X129.081 Y98.339 E8.90866
G1 X129.502 Y99.158 E8.95154
G1 X129.759 Y99.764 E8.98219
G1 X129.843 Y99.981 E8.99303
G1 X130.138 Y100.854 E9.03594
G1 X130.356 Y101.748 E9.07879
G1 X130.476 Y102.484 E9.11351
G1 X130.578 Y103.76 E9.17312
G1 X130.6 Y105.002 E9.23096
G1 X130.599 Y116.861 E9.78316
G1 X130.579 Y117.806 E9.82718
G1 X130.552 Y118.359 E9.85296
G1 X130.421 Y119.585 E9.91037
G1 X130.342 Y120.059 E9.93274
G1 X130.054 Y121.313 E9.99266
G1 X129.914 Y121.788 E10.01571
G1 X129.48 Y122.987 E10.07509
G1 X129.305 Y123.393 E10.09568
G1 X128.726 Y124.539 E10.15546
G1 X128.45 Y125.012 E10.18096
G1 X127.714 Y126.11 E10.24251
G1 X127.457 Y126.446 E10.26221
G1 X126.646 Y127.387 E10.32006
G1 X126.289 Y127.755 E10.34393
G1 X125.303 Y128.651 E10.40597
G1 X124.908 Y128.967 E10.42952
G1 X123.922 Y129.667 E10.48583
G1 X123.57 Y129.888 E10.50518
G1 X122.432 Y130.509 E10.56555
G1 X121.954 Y130.733 E10.59013
G1 X120.722 Y131.219 E10.6518
G1 X120.265 Y131.367 E10.67417
G1 X119.116 Y131.669 E10.72949
G1 X118.699 Y131.754 E10.7493
G1 X117.462 Y131.931 E10.80749
G1 X116.958 Y131.973 E10.83104
G1 X116.248 Y132.009 E10.86414
G1 X115.207 Y132.024 E10.91262
G1 X104.551 Y132.023 E11.40881
G1 X103.618 Y132.003 E11.45226
G1 X103.065 Y131.976 E11.47804
G1 X101.822 Y131.842 E11.53626
G1 X101.347 Y131.762 E11.55869
G1 X100.107 Y131.476 E11.61794
G1 X99.619 Y131.332 E11.64163
G1 X98.412 Y130.894 E11.70142
G1 X98.042 Y130.734 E11.72019
G1 X96.928 Y130.173 E11.77827
G1 X96.437 Y129.888 E11.80471
G1 X95.328 Y129.147 E11.86681
G1 X94.961 Y128.867 E11.88831
G1 X94.008 Y128.046 E11.94688
G1 X93.701 Y127.748 E11.9668
G1 X92.83 Y126.793 E12.02699
G1 X92.473 Y126.35 E12.05348
G1 X91.741 Y125.322 E12.11225
G1 X91.522 Y124.972 E12.13147
G1 X90.914 Y123.855 E12.19069
G1 X90.697 Y123.393 E12.21446
G1 X90.213 Y122.174 E12.27553
G1 X90.062 Y121.711 E12.2982
G1 X89.741 Y120.481 E12.3574
G1 X89.652 Y120.031 E12.37876
G1 X89.483 Y118.801 E12.43657
G1 X89.446 Y118.328 E12.45866
G1 X89.415 Y117.672 E12.48924
G1 X89.4 Y116.631 E12.53772
G1 X89.401 Y106.526 E13.00825
G0 F6000 X89.801 Y106.532
G1 F1200 X89.818 Y105.749 E13.04472
G1 X89.853 Y105.022 E13.07861
G1 X89.936 Y104.122 E13.1207
G1 X90.042 Y103.498 E13.15017
G1 X90.129 Y103.066 E13.17069
G1 X90.346 Y102.19 E13.21271
G1 X90.487 Y101.749 E13.23427
G1 X90.639 Y101.309 E13.25595
G1 X90.971 Y100.47 E13.29796
G1 X91.17 Y100.052 E13.31952
G1 X91.379 Y99.637 E13.34115
G1 X91.821 Y98.849 E13.38323
G1 X92.096 Y98.428 E13.40664
G1 X92.355 Y98.053 E13.42786
G1 X92.901 Y97.334 E13.4699
G1 X93.219 Y96.969 E13.49244
G1 X93.548 Y96.609 E13.51515
G1 X94.186 Y95.97 E13.5572
G1 X94.854 Y95.397 E13.59818
G1 X95.924 Y94.613 E13.65994
G1 X96.315 Y94.364 E13.68153
G1 X97.483 Y93.724 E13.74355
G1 X97.869 Y93.544 E13.76338
G1 X99.076 Y93.072 E13.82373
G1 X99.508 Y92.934 E13.84484
G1 X100.812 Y92.61 E13.90741
G1 X101.247 Y92.532 E13.92799
G1 X102.561 Y92.384 E13.98956
G1 X103.022 Y92.362 E14.01105
G1 X103.925 Y92.359 E14.0531
G1 X104.455 Y92.394 E14.07783
G1 X107.633 Y92.69 E14.22645
G1 X110.182 Y92.855 E14.34539
G1 X112.688 Y92.946 E14.46216
G1 X115.258 Y92.967 E14.58183
G1 X117.815 Y92.915 E14.70092
G1 X118.673 Y92.879 E14.74091
G1 X119.576 Y92.881 E14.78296
G1 X120.476 Y92.963 E14.82504
G1 X121.411 Y93.134 E14.8693
G1 X121.648 Y93.189 E14.88063
G1 X122.518 Y93.432 E14.92269
G1 X123.363 Y93.751 E14.96475
G1 X124.007 Y94.054 E14.99789
G1 X124.217 Y94.162 E15.00888
G1 X125.001 Y94.61 E15.05093
G1 X125.742 Y95.126 E15.09297
G1 X126.224 Y95.518 E15.1219
G1 X126.409 Y95.678 E15.13329
G1 X127.066 Y96.299 E15.17539
G1 X127.664 Y96.975 E15.21741
G1 X128.125 Y97.589 E15.25317
G1 X128.262 Y97.787 E15.26438
G1 X128.742 Y98.552 E15.30643
G1 X129.153 Y99.356 E15.34848
G1 X129.47 Y100.126 E15.38725
G1 X129.759 Y100.982 E15.42932
G1 X129.97 Y101.86 E15.47137
G1 X130.08 Y102.54 E15.50344
G1 X130.178 Y103.768 E15.56081
G1 X130.2 Y105.002 E15.61827
G1 X130.199 Y116.856 E16.17025
G1 X130.18 Y117.786 E16.21356
G1 X130.153 Y118.339 E16.23934
G1 X130.026 Y119.519 E16.2946
G1 X129.947 Y119.993 E16.31698
G1 X129.67 Y121.2 E16.37464
G1 X129.53 Y121.675 E16.3977
G1 X129.113 Y122.828 E16.45479
G1 X128.938 Y123.234 E16.47538
G1 X128.381 Y124.338 E16.53296
G1 X128.105 Y124.811 E16.55846
G1 X127.397 Y125.867 E16.61766
G1 X127.14 Y126.203 E16.63736
G1 X126.359 Y127.108 E16.69302
G1 X126.002 Y127.476 E16.7169
G1 X125.053 Y128.339 E16.77662
G1 X124.658 Y128.655 E16.80018
G1 X123.71 Y129.329 E16.85434
G1 X123.358 Y129.55 E16.87369
G1 X122.262 Y130.147 E16.93181
G1 X121.784 Y130.371 E16.95639
G1 X120.599 Y130.839 E17.01571
G1 X120.142 Y130.987 E17.03808
G1 X119.036 Y131.277 E17.09132
G1 X118.619 Y131.362 E17.11114
G1 X117.429 Y131.533 E17.16712
G1 X116.925 Y131.575 E17.19067
G1 X116.242 Y131.609 E17.22251
G1 X115.207 Y131.624 E17.27071
G1 X104.557 Y131.623 E17.76662
G1 X103.638 Y131.604 E17.80942
G1 X103.085 Y131.577 E17.8352
G1 X101.888 Y131.447 E17.89127
G1 X101.413 Y131.367 E17.9137
G1 X100.22 Y131.092 E17.97071
G1 X99.732 Y130.948 E17.9944
G1 X98.571 Y130.527 E18.0519
G1 X98.201 Y130.367 E18.07067
G1 X97.129 Y129.827 E18.12657
G1 X96.638 Y129.542 E18.153
G1 X95.571 Y128.829 E18.21276
G1 X95.204 Y128.549 E18.23425
G1 X94.287 Y127.759 E18.29061
G1 X93.98 Y127.461 E18.31053
G1 X93.142 Y126.542 E18.36845
G1 X92.785 Y126.099 E18.39494
G1 X92.08 Y125.109 E18.45153
G1 X91.861 Y124.759 E18.47076
G1 X91.276 Y123.685 E18.5277
G1 X91.059 Y123.223 E18.55147
G1 X90.594 Y122.05 E18.61023
G1 X90.443 Y121.587 E18.6329
G1 X90.134 Y120.403 E18.68988
G1 X90.045 Y119.953 E18.71124
G1 X89.882 Y118.769 E18.76689
G1 X89.845 Y118.296 E18.78899
G1 X89.815 Y117.665 E18.8184
G1 X89.8 Y116.631 E18.86655
G1 X89.801 Y106.532 E19.3368
G1 F1500 E12.8368
;MESH:Bed cable guide v5.stl
G0 F6000 X99.335 Y111.586
G0 X101.219 Y111.586
G0 X101.489 Y117.876
G0 X101.795 Y118.707
G0 X102.052 Y119.071
G0 X102.732 Y119.637
G0 X103.2 Y119.807
G0 X103.947 Y120.031
G1 F1500 E19.3368
G0 F6000 X103.982 Y119.624
;TYPE:WALL-OUTER
G1 F1200 X103.633 Y119.594 E19.35312
G1 X103.271 Y119.5 E19.37053
G1 X102.934 Y119.349 E19.38773
G1 X102.603 Y119.122 E19.40642
G1 X102.334 Y118.859 E19.42393
G1 X102.184 Y118.654 E19.43576
G1 X101.942 Y118.197 E19.45984
G1 X101.863 Y117.923 E19.47312
G1 X101.8 Y117.452 E19.49525
G1 X101.8 Y111.583 E19.76853
G1 X101.845 Y111.455 E19.77485
G1 X102.023 Y111.378 E19.78388
G1 X102.141 Y111.422 E19.78974
G1 X102.324 Y111.714 E19.80579
G1 X102.544 Y112.099 E19.82644
G1 X102.956 Y112.698 E19.86029
G1 X103.429 Y113.273 E19.89496
G1 X103.943 Y113.805 E19.92941
G1 X104.502 Y114.292 E19.96393
G1 X105.102 Y114.732 E19.99857
G1 X105.731 Y115.117 E20.03291
G1 X106.392 Y115.449 E20.06736
G1 X107.081 Y115.723 E20.10188
G1 X107.791 Y115.94 E20.13645
G1 X108.144 Y116.016 E20.15327
G1 X108.514 Y116.097 E20.1709
G1 X109.25 Y116.191 E20.20545
G1 X109.991 Y116.223 E20.23999
G1 X110.611 Y116.198 E20.26888
G1 X110.76 Y116.188 E20.27584
G1 X111.465 Y116.1 E20.30892
G1 X112.191 Y115.945 E20.34349
G1 X112.898 Y115.732 E20.37787
G1 X113.588 Y115.459 E20.41242
G1 X114.25 Y115.128 E20.44689
G1 X114.883 Y114.743 E20.48138
G1 X115.483 Y114.307 E20.51592
G1 X116.042 Y113.821 E20.55041
G1 X116.558 Y113.29 E20.58489
G1 X117.028 Y112.72 E20.61929
G1 X117.448 Y112.109 E20.65381
G1 X117.817 Y111.465 E20.68837
G1 X117.948 Y111.385 E20.69552
G1 X118.054 Y111.396 E20.70048
G1 X118.149 Y111.456 E20.70572
G1 X118.197 Y111.587 E20.71221
G1 X118.201 Y117.437 E20.98461
G1 X118.168 Y117.809 E21.002
G1 X118.073 Y118.162 E21.01902
G1 X117.909 Y118.52 E21.03736
G1 X117.692 Y118.829 E21.05494
G1 X117.434 Y119.091 E21.07206
G1 X117.229 Y119.241 E21.08389
G1 X116.775 Y119.483 E21.10785
G1 X116.5 Y119.561 E21.12116
G1 X116.024 Y119.624 E21.14352
G1 X103.982 Y119.624 E21.70424
G0 F6000 X103.948 Y120.023
;TYPE:WALL-INNER
G1 F1200 X103.599 Y119.993 E21.72055
G1 X103.167 Y119.887 E21.74127
G1 X102.767 Y119.713 E21.76158
G1 X102.53 Y119.56 E21.77471
G1 X102.296 Y119.385 E21.78832
G1 X102.041 Y119.132 E21.80505
G1 X101.858 Y118.886 E21.81932
G1 X101.706 Y118.642 E21.83271
G1 X101.567 Y118.339 E21.84823
G1 X101.477 Y118.029 E21.86326
G1 X101.426 Y117.747 E21.87661
G1 X101.4 Y117.47 E21.88956
G1 X101.4 Y111.583 E22.16368
G1 X101.537 Y111.2 E22.18263
G1 X101.81 Y111.013 E22.19803
G1 X102.038 Y110.978 E22.20877
G1 X102.348 Y111.077 E22.22393
G1 X102.537 Y111.279 E22.23681
G1 X102.884 Y111.885 E22.26933
G1 X103.084 Y112.177 E22.28581
G1 X103.276 Y112.457 E22.30161
G1 X103.569 Y112.813 E22.32308
G1 X103.728 Y113.007 E22.33476
G1 X104.099 Y113.39 E22.35959
G1 X104.232 Y113.526 E22.36845
G1 X104.752 Y113.979 E22.40056
G1 X105.325 Y114.4 E22.43367
G1 X105.94 Y114.774 E22.46719
G1 X106.556 Y115.083 E22.49928
G1 X107.213 Y115.345 E22.53221
G1 X107.472 Y115.424 E22.54482
G1 X107.908 Y115.555 E22.56602
G1 X108.23 Y115.625 E22.58136
G1 X108.582 Y115.702 E22.59814
G1 X109.284 Y115.791 E22.63109
G1 X110.007 Y115.823 E22.66479
G1 X110.711 Y115.791 E22.69761
G1 X111.415 Y115.702 E22.73065
G1 X112.106 Y115.553 E22.76356
G1 X112.782 Y115.348 E22.79646
G1 X113.439 Y115.086 E22.82939
G1 X114.07 Y114.769 E22.86227
G1 X114.661 Y114.409 E22.8945
G1 X115.233 Y113.993 E22.92743
G1 X115.767 Y113.53 E22.96034
G1 X116.271 Y113.01 E22.99406
G1 X116.708 Y112.479 E23.02608
G1 X117.117 Y111.882 E23.05978
G1 X117.459 Y111.284 E23.09186
G1 X117.529 Y111.186 E23.09747
G1 X117.831 Y111.001 E23.11396
G1 X118.099 Y110.994 E23.12644
G1 X118.451 Y111.193 E23.14527
